packages/icons/general/Buy.svg

<svg width="24" height="24" viewBox="0 0 24 24" xmlns="http://www.w3.org/2000/svg">
<g>
        <path
            fill-rule="evenodd"
            clip-rule="evenodd"
            d="M1.25 8.5C1.25 8.08579 1.58579 7.75 2 7.75H13C13.4142 7.75 13.75 8.08579 13.75 8.5C13.75 8.91421 13.4142 9.25 13 9.25H2C1.58579 9.25 1.25 8.91421 1.25 8.5Z"
            fill="#FFFFFF"
        />
        <path
            fill-rule="evenodd"
            clip-rule="evenodd"
            d="M5.25 16.5C5.25 16.0858 5.58579 15.75 6 15.75H8C8.41421 15.75 8.75 16.0858 8.75 16.5C8.75 16.9142 8.41421 17.25 8 17.25H6C5.58579 17.25 5.25 16.9142 5.25 16.5Z"
            fill="#FFFFFF"
        />
        <path
            fill-rule="evenodd"
            clip-rule="evenodd"
            d="M9.75 16.5C9.75 16.0858 10.0858 15.75 10.5 15.75H14.5C14.9142 15.75 15.25 16.0858 15.25 16.5C15.25 16.9142 14.9142 17.25 14.5 17.25H10.5C10.0858 17.25 9.75 16.9142 9.75 16.5Z"
            fill="#FFFFFF"
        />
        <path
            fill-rule="evenodd"
            clip-rule="evenodd"
            d="M3.41607 4.91208C2.99101 5.33236 2.75 6.13119 2.75 7.89001V16.11C2.75 17.8688 2.99101 18.6676 3.41607 19.0879C3.84409 19.5111 4.65901 19.75 6.44 19.75H17.56C19.341 19.75 20.1559 19.5111 20.5839 19.0879C21.009 18.6676 21.25 17.8688 21.25 16.11V11.33C21.25 10.9158 21.5858 10.58 22 10.58C22.4142 10.58 22.75 10.9158 22.75 11.33V16.11C22.75 17.8612 22.546 19.2573 21.6386 20.1546C20.7341 21.0489 19.329 21.25 17.56 21.25H6.44C4.67099 21.25 3.26591 21.0489 2.36143 20.1546C1.45399 19.2573 1.25 17.8612 1.25 16.11V7.89001C1.25 6.13884 1.45399 4.74266 2.36143 3.84544C3.26591 2.95113 4.67099 2.75 6.44 2.75H13.28C13.6942 2.75 14.03 3.08579 14.03 3.5C14.03 3.91421 13.6942 4.25 13.28 4.25H6.44C4.65901 4.25 3.84409 4.48888 3.41607 4.91208Z"
            fill="#FFFFFF"
        />
        <path
            fill-rule="evenodd"
            clip-rule="evenodd"
            d="M16.25 3.25C16.25 2.83579 16.5858 2.5 17 2.5H20.13C21.2608 2.5 22.13 3.49286 22.13 4.5C22.13 5.60421 21.2342 6.5 20.13 6.5H17C16.5858 6.5 16.25 6.16421 16.25 5.75V3.25ZM17.75 4V5H20.13C20.4058 5 20.63 4.77579 20.63 4.5C20.63 4.26714 20.3792 4 20.13 4H17.75Z"
            fill="#FFFFFF"
        />
        <path
            fill-rule="evenodd"
            clip-rule="evenodd"
            d="M16.25 5.75C16.25 5.33579 16.5858 5 17 5H20.57C21.6765 5 22.75 5.8044 22.75 7C22.75 8.1956 21.6765 9 20.57 9H17C16.5858 9 16.25 8.66421 16.25 8.25V5.75ZM17.75 6.5V7.5H20.57C21.0435 7.5 21.25 7.1844 21.25 7C21.25 6.8156 21.0435 6.5 20.57 6.5H17.75Z"
            fill="#FFFFFF"
        />
        <path
            fill-rule="evenodd"
            clip-rule="evenodd"
            d="M18.7598 7.5C19.174 7.5 19.5098 7.83579 19.5098 8.25V9.5C19.5098 9.91421 19.174 10.25 18.7598 10.25C18.3456 10.25 18.0098 9.91421 18.0098 9.5V8.25C18.0098 7.83579 18.3456 7.5 18.7598 7.5Z"
            fill="#FFFFFF"
        />
        <path
            fill-rule="evenodd"
            clip-rule="evenodd"
            d="M18.7598 1.25C19.174 1.25 19.5098 1.58579 19.5098 2V3.25C19.5098 3.66421 19.174 4 18.7598 4C18.3456 4 18.0098 3.66421 18.0098 3.25V2C18.0098 1.58579 18.3456 1.25 18.7598 1.25Z"
            fill="#FFFFFF"
        />
        <path
            fill-rule="evenodd"
            clip-rule="evenodd"
            d="M15.25 3.25C15.25 2.83579 15.5858 2.5 16 2.5H18.19C18.6042 2.5 18.94 2.83579 18.94 3.25C18.94 3.66421 18.6042 4 18.19 4H16C15.5858 4 15.25 3.66421 15.25 3.25Z"
            fill="#FFFFFF"
        />
        <path
            fill-rule="evenodd"
            clip-rule="evenodd"
            d="M15.25 8.25C15.25 7.83579 15.5858 7.5 16 7.5H18.19C18.6042 7.5 18.94 7.83579 18.94 8.25C18.94 8.66421 18.6042 9 18.19 9H16C15.5858 9 15.25 8.66421 15.25 8.25Z"
            fill="#FFFFFF"
        />
    </g>
</svg>

<svg xmlns="http://www.w3.org/2000/svg" viewBox="0 0 24 24">
    <g fill="#FFF" fill-rule="evenodd" clip-rule="evenodd">
        <path d="M1.25 8.5A.75.75 0 0 1 2 7.75h11a.75.75 0 0 1 0 1.5H2a.75.75 0 0 1-.75-.75Zm4 8a.75.75 0 0 1 .75-.75h2a.75.75 0 0 1 0 1.5H6a.75.75 0 0 1-.75-.75Zm4.5 0a.75.75 0 0 1 .75-.75h4a.75.75 0 0 1 0 1.5h-4a.75.75 0 0 1-.75-.75Z"/>
        <path d="M3.416 4.912c-.425.42-.666 1.22-.666 2.978v8.22c0 1.759.241 2.558.666 2.978.428.423 1.243.662 3.024.662h11.12c1.781 0 2.596-.239 3.024-.662.425-.42.666-1.22.666-2.978v-4.78a.75.75 0 0 1 1.5 0v4.78c0 1.751-.204 3.147-1.111 4.045-.905.894-2.31 1.095-4.079 1.095H6.44c-1.769 0-3.174-.201-4.079-1.095-.907-.898-1.111-2.294-1.111-4.045V7.89c0-1.751.204-3.147 1.111-4.045.905-.894 2.31-1.095 4.079-1.095h6.84a.75.75 0 0 1 0 1.5H6.44c-1.781 0-2.596.239-3.024.662Z"/>
        <path d="M16.25 3.25A.75.75 0 0 1 17 2.5h3.13c1.13 0 2 .993 2 2a2 2 0 0 1-2 2H17a.75.75 0 0 1-.75-.75v-2.5Zm1.5.75v1h2.38a.5.5 0 0 0 .5-.5c0-.233-.25-.5-.5-.5h-2.38Z"/>
        <path d="M16.25 5.75A.75.75 0 0 1 17 5h3.57c1.107 0 2.18.804 2.18 2s-1.073 2-2.18 2H17a.75.75 0 0 1-.75-.75v-2.5Zm1.5.75v1h2.82c.474 0 .68-.316.68-.5s-.206-.5-.68-.5h-2.82Z"/>
        <path d="M18.76 7.5a.75.75 0 0 1 .75.75V9.5a.75.75 0 0 1-1.5 0V8.25a.75.75 0 0 1 .75-.75Zm0-6.25a.75.75 0 0 1 .75.75v1.25a.75.75 0 0 1-1.5 0V2a.75.75 0 0 1 .75-.75Z"/>
        <path d="M15.25 3.25A.75.75 0 0 1 16 2.5h2.19a.75.75 0 0 1 0 1.5H16a.75.75 0 0 1-.75-.75Zm0 5A.75.75 0 0 1 16 7.5h2.19a.75.75 0 0 1 0 1.5H16a.75.75 0 0 1-.75-.75Z"/>
    </g>
</svg>
